; generated by PrusaSlicer 2.4.0-beta3+win64 on 2021-12-07 at 06:01:47 UTC

; 

; external perimeters extrusion width = 0.45mm
; perimeters extrusion width = 0.45mm
; infill extrusion width = 0.45mm
; solid infill extrusion width = 0.45mm
; top infill extrusion width = 0.40mm
; support material extrusion width = 0.40mm

; external perimeters extrusion width = 0.45mm
; perimeters extrusion width = 0.45mm
; infill extrusion width = 0.45mm
; solid infill extrusion width = 0.45mm
; top infill extrusion width = 0.40mm
; support material extrusion width = 0.40mm

;TYPE:Custom
; **** Start of Start GCode: FlashForge Creator 3 ****
M118 X150.00 Y125.00 Z200.00 T0 T1
; todo: need to post process Active extruders in m118

G90 ; absolute positioning
M108 T0 ; tool change
G1 X187 Y0.000 F9000 ; Move initial extruder over anti-ooze plate (9-point Bed Levelling sometimes leaves it off plate)

G1 Z0.000 F420 ;
G92 Z-0.05 ; Value substituted by FFPP script (FFPP-filament_extra_z_offset)(negative is printing higher in air)

M140 S90 T0 ; set bed temperature
M104 S260 T0 ; set right extruder temp
M104 S250 T1 ; set left extruder temp

M7 T0 ; wait for platform
M6 T0 ; wait for temp
M6 T1 ; wait for temp

M106 ; Extruder/Heat Break fan on
M651 S255 ; chassis fan on (after heating reached to speed up heating)

; M652 ; chassis fan off 
; M109 T1/2 only if dupe or mirror

;layer_count: 32 ; Value substituted by FFPP script (FFPP-calculated-total_layer_count)
; **** End of Start GCode: FlashForge Creator 3 ****
G21 ; set units to millimeters
G90 ; use absolute coordinates
M82 ; use absolute distances for extrusion
G92 E0
; **** Start of Tool Change GCode: FlashForge Creator 3 ****
M108 T0
; **** End of Tool Change GCode: FlashForge Creator 3 ****
G92 E0
; **** Start of Filament-Specific Start GCode: EconoFil PETG ****
; FFPP-filament_extra_z_offset: 0.05 ; Value parsed by FFPP script
; **** End of Filament-Specific Start GCode: EconoFil PETG ****
M106 S255
;LAYER_CHANGE
;Z:0.3
;HEIGHT:0.3
; **** Start of Before Layer Change GCode: FlashForge Creator 3 ****
; FFPP-layer_z_height: 0.3 ; Value parsed by FFPP script
;layer:0.300 ; Value substituted by FFPP script (FFPP-calculated-next_layer_height)
; **** End of Before Layer Change GCode: FlashForge Creator 3 ****
G1 E-3 F1500
G92 E0
G1 Z.3 F420
; **** Start of After Layer Change GCode: FlashForge Creator 3 ****
; **** End of After Layer Change GCode: FlashForge Creator 3 ****
G1 X7.588 Y-12.518 F9000
G1 E3 F1500
M204 S1000
;TYPE:Skirt/Brim
;WIDTH:0.45
G1 F1800
G1 X8.222 Y-12.134 E3.03457
G1 X9.362 Y-11.277 E3.10112
G1 X10.432 Y-10.295 E3.16884
G1 X11.371 Y-9.248 E3.23446
G1 X12.235 Y-8.07 E3.3026
G1 X12.956 Y-6.853 E3.3686
G1 X13.578 Y-5.52 E3.43726
G1 X14.044 Y-4.193 E3.50289
G1 X14.392 Y-2.774 E3.57102
G1 X14.594 Y-1.354 E3.63795
G1 X14.657 Y.065 E3.70419
G1 X14.581 Y1.489 E3.77074
G1 X14.361 Y2.93 E3.83874
G1 X13.996 Y4.351 E3.9072
G1 X13.509 Y5.687 E3.97352
G1 X12.896 Y6.966 E4.03971
G1 X12.15 Y8.198 E4.10689
G1 X11.29 Y9.347 E4.17383
G1 X10.304 Y10.423 E4.24192
G1 X9.248 Y11.371 E4.30814
G1 X8.054 Y12.246 E4.37721
G1 X6.795 Y12.986 E4.44533
G1 X5.52 Y13.578 E4.51093
G1 X4.193 Y14.044 E4.57654
G1 X2.789 Y14.389 E4.64399
G1 X1.374 Y14.592 E4.71069
G1 X-.096 Y14.657 E4.77934
G1 X-1.519 Y14.578 E4.8458
G1 X-2.93 Y14.361 E4.91241
G1 X-4.315 Y14.007 E4.9791
G1 X-5.671 Y13.515 E5.04641
G1 X-6.966 Y12.895 E5.11339
G1 X-8.201 Y12.148 E5.18074
G1 X-9.375 Y11.267 E5.24921
G1 X-10.421 Y10.307 E5.31542
G1 X-11.363 Y9.258 E5.38121
G1 X-12.232 Y8.075 E5.44968
G1 X-12.982 Y6.805 E5.51851
G1 X-13.578 Y5.519 E5.5846
G1 X-14.053 Y4.163 E5.65167
G1 X-14.397 Y2.75 E5.71951
G1 X-14.597 Y1.321 E5.78681
G1 X-14.657 Y-.084 E5.85241
G1 X-14.576 Y-1.533 E5.92013
G1 X-14.358 Y-2.944 E5.98677
G1 X-13.996 Y-4.351 E6.05454
G1 X-13.504 Y-5.698 E6.12144
G1 X-12.881 Y-6.993 E6.18847
G1 X-12.133 Y-8.222 E6.25558
G1 X-11.29 Y-9.347 E6.32119
G1 X-10.302 Y-10.426 E6.38943
G1 X-9.248 Y-11.371 E6.45547
G1 X-8.085 Y-12.225 E6.52282
G1 X-6.853 Y-12.956 E6.58961
G1 X-5.519 Y-13.578 E6.65827
G1 X-4.193 Y-14.044 E6.72388
G1 X-2.796 Y-14.388 E6.79099
G1 X-1.357 Y-14.594 E6.85879
G1 X.065 Y-14.657 E6.9252
G1 X1.489 Y-14.581 E6.99175
G1 X2.93 Y-14.361 E7.05975
G1 X4.351 Y-13.996 E7.1282
G1 X5.671 Y-13.515 E7.19375
G1 X6.955 Y-12.902 E7.26013
G1 X7.537 Y-12.549 E7.29188
G1 X7.337 Y-12.219 F9000
G1 F1800
G1 X8.005 Y-11.815 E7.3283
G1 X9.116 Y-10.98 E7.39312
G1 X10.158 Y-10.024 E7.45912
G1 X11.072 Y-9.004 E7.52301
G1 X11.913 Y-7.858 E7.58934
G1 X12.615 Y-6.674 E7.65354
G1 X13.221 Y-5.374 E7.72048
G1 X13.675 Y-4.081 E7.78437
G1 X14.013 Y-2.701 E7.85069
G1 X14.21 Y-1.319 E7.91583
G1 X14.271 Y.064 E7.98038
G1 X14.197 Y1.449 E8.04511
G1 X13.983 Y2.852 E8.11131
G1 X13.627 Y4.238 E8.17805
G1 X13.153 Y5.538 E8.24264
G1 X12.556 Y6.784 E8.30707
G1 X11.831 Y7.981 E8.3724
G1 X10.993 Y9.1 E8.43759
G1 X10.032 Y10.15 E8.50398
G1 X8.958 Y11.109 E8.57118
G1 X7.841 Y11.924 E8.63568
G1 X6.616 Y12.645 E8.70202
G1 X5.374 Y13.221 E8.7659
G1 X4.082 Y13.675 E8.82978
G1 X2.716 Y14.01 E8.89537
G1 X1.338 Y14.208 E8.96032
G1 X-.095 Y14.271 E9.02724
G1 X-1.478 Y14.194 E9.09189
G1 X-2.852 Y13.983 E9.15673
G1 X-4.201 Y13.639 E9.22167
G1 X-5.523 Y13.159 E9.28729
G1 X-6.784 Y12.556 E9.35251
G1 X-7.985 Y11.828 E9.41801
G1 X-9.129 Y10.97 E9.48475
G1 X-10.147 Y10.035 E9.5492
G1 X-11.064 Y9.014 E9.61326
G1 X-11.909 Y7.863 E9.67987
G1 X-12.641 Y6.624 E9.74698
G1 X-13.221 Y5.373 E9.81132
G1 X-13.683 Y4.054 E9.87654
G1 X-14.018 Y2.678 E9.94262
G1 X-14.213 Y1.286 E10.00819
G1 X-14.271 Y-.082 E10.07207
G1 X-14.193 Y-1.492 E10.13794
G1 X-13.98 Y-2.867 E10.20289
G1 X-13.627 Y-4.238 E10.2689
G1 X-13.148 Y-5.549 E10.33403
G1 X-12.543 Y-6.808 E10.39922
G1 X-11.815 Y-8.005 E10.46457
G1 X-10.993 Y-9.1 E10.52845
G1 X-10.031 Y-10.151 E10.5949
G1 X-9.004 Y-11.072 E10.65928
G1 X-7.873 Y-11.903 E10.72478
G1 X-6.674 Y-12.615 E10.7898
G1 X-5.373 Y-13.221 E10.85674
G1 X-4.082 Y-13.675 E10.92063
G1 X-2.723 Y-14.009 E10.98589
G1 X-1.322 Y-14.21 E11.05192
G1 X.064 Y-14.271 E11.11665
G1 X1.449 Y-14.197 E11.18138
G1 X2.852 Y-13.983 E11.24757
G1 X4.238 Y-13.628 E11.31431
G1 X5.523 Y-13.159 E11.37813
G1 X6.773 Y-12.562 E11.44275
G1 X7.286 Y-12.251 E11.47077
G1 X7.088 Y-11.922 F9000
G1 F1800
G1 X7.741 Y-11.527 E11.50639
G1 X8.822 Y-10.723 E11.56923
G1 X9.838 Y-9.799 E11.63332
G1 X10.732 Y-8.811 E11.69548
G1 X11.554 Y-7.701 E11.75993
G1 X12.247 Y-6.544 E11.8228
G1 X12.839 Y-5.288 E11.88762
G1 X13.301 Y-3.986 E11.95206
G1 X13.628 Y-2.663 E12.01565
G1 X13.824 Y-1.303 E12.07975
G1 X13.885 Y.044 E12.14267
G1 X13.812 Y1.424 E12.20712
G1 X13.606 Y2.774 E12.27085
G1 X13.259 Y4.124 E12.33588
G1 X12.797 Y5.39 E12.39873
G1 X12.216 Y6.601 E12.46141
G1 X11.511 Y7.765 E12.52489
G1 X10.697 Y8.854 E12.58832
G1 X9.76 Y9.876 E12.65302
G1 X8.717 Y10.809 E12.7183
G1 X7.629 Y11.602 E12.78112
G1 X6.436 Y12.304 E12.84568
G1 X5.227 Y12.864 E12.90784
G1 X3.97 Y13.306 E12.97
G1 X2.656 Y13.629 E13.03314
G1 X1.303 Y13.824 E13.09692
G1 X-.044 Y13.885 E13.15984
G1 X-1.407 Y13.814 E13.22353
G1 X-2.774 Y13.606 E13.28802
G1 X-4.086 Y13.271 E13.35121
G1 X-5.374 Y12.803 E13.41513
G1 X-6.601 Y12.216 E13.4786
G1 X-7.731 Y11.534 E13.54014
G1 X-8.835 Y10.712 E13.60437
G1 X-9.838 Y9.799 E13.66767
G1 X-10.732 Y8.811 E13.72983
G1 X-11.56 Y7.693 E13.79474
G1 X-12.257 Y6.525 E13.85817
G1 X-12.839 Y5.288 E13.92196
G1 X-13.287 Y4.033 E13.98412
G1 X-13.623 Y2.689 E14.04874
G1 X-13.819 Y1.358 E14.11152
G1 X-13.886 Y-.028 E14.17624
G1 X-13.814 Y-1.411 E14.24087
G1 X-13.61 Y-2.755 E14.30429
G1 X-13.279 Y-4.058 E14.36701
G1 X-12.818 Y-5.339 E14.43055
G1 X-12.224 Y-6.587 E14.49499
G1 X-11.527 Y-7.741 E14.55791
G1 X-10.697 Y-8.854 E14.62268
G1 X-9.787 Y-9.85 E14.68563
G1 X-8.795 Y-10.745 E14.74793
G1 X-7.707 Y-11.551 E14.81112
G1 X-6.552 Y-12.243 E14.87395
G1 X-5.288 Y-12.839 E14.93914
G1 X-4.033 Y-13.287 E15.00129
G1 X-2.689 Y-13.623 E15.06591
G1 X-1.303 Y-13.824 E15.13127
G1 X.044 Y-13.885 E15.19419
G1 X1.424 Y-13.812 E15.25865
G1 X2.774 Y-13.606 E15.32237
G1 X4.102 Y-13.266 E15.38632
G1 X5.374 Y-12.803 E15.44948
G1 X6.59 Y-12.222 E15.51234
G1 X7.036 Y-11.953 E15.53666
; printing object Nozzle Switch Test Rod.STL id:0 copy 0
G1 E12.53666 F1500
G92 E0
G1 X-1.26 Y5.985 F9000
G1 E3 F1500
;TYPE:Perimeter
G1 F1800
G1 X-1.839 Y5.833 E3.02796
G1 X-2.39 Y5.63 E3.05534
G1 X-2.919 Y5.375 E3.08272
G1 X-3.42 Y5.071 E3.1101
G1 X-3.903 Y4.711 E3.13819
G1 X-4.363 Y4.288 E3.16736
G1 X-4.778 Y3.82 E3.19653
G1 X-5.13 Y3.331 E3.22462
G1 X-5.425 Y2.824 E3.252
G1 X-5.671 Y2.291 E3.27938
G1 X-5.864 Y1.739 E3.30669
G1 X-6.009 Y1.141 E3.33539
G1 X-6.093 Y.532 E3.36408
G1 X-6.116 Y-.053 E3.3914
G1 X-6.083 Y-.639 E3.41878
G1 X-5.994 Y-1.219 E3.44616
G1 X-5.846 Y-1.803 E3.47425
G1 X-5.637 Y-2.376 E3.50271
G1 X-5.375 Y-2.919 E3.5308
G1 X-5.063 Y-3.433 E3.55888
G1 X-4.696 Y-3.921 E3.58735
G1 X-4.287 Y-4.363 E3.61544
G1 X-3.85 Y-4.752 E3.64275
G1 X-3.354 Y-5.115 E3.67145
G1 X-2.823 Y-5.426 E3.70014
G1 X-2.291 Y-5.671 E3.72745
G1 X-1.739 Y-5.864 E3.75476
G1 X-1.141 Y-6.009 E3.78346
G1 X-.532 Y-6.093 E3.81216
G1 X.069 Y-6.117 E3.84017
G1 X.678 Y-6.08 E3.86864
G1 X1.272 Y-5.983 E3.89672
G1 X1.839 Y-5.833 E3.92411
G1 X2.39 Y-5.63 E3.95149
G1 X2.919 Y-5.375 E3.97887
G1 X3.42 Y-5.071 E4.00625
G1 X3.903 Y-4.711 E4.03434
G1 X4.353 Y-4.298 E4.06281
G1 X4.753 Y-3.849 E4.0909
G1 X5.101 Y-3.376 E4.11828
G1 X5.408 Y-2.859 E4.14636
G1 X5.672 Y-2.292 E4.17554
G1 X5.876 Y-1.701 E4.2047
G1 X6.014 Y-1.115 E4.23279
G1 X6.093 Y-.533 E4.26017
G1 X6.116 Y.053 E4.28756
G1 X6.082 Y.654 E4.31564
G1 X5.987 Y1.257 E4.34411
G1 X5.833 Y1.839 E4.37219
G1 X5.63 Y2.39 E4.39958
G1 X5.369 Y2.932 E4.42766
G1 X5.05 Y3.452 E4.45613
G1 X4.686 Y3.932 E4.48422
G1 X4.287 Y4.363 E4.5116
G1 X3.85 Y4.752 E4.53891
G1 X3.354 Y5.115 E4.56761
G1 X2.823 Y5.426 E4.59631
G1 X2.291 Y5.671 E4.62361
G1 X1.723 Y5.87 E4.6517
G1 X1.13 Y6.012 E4.68017
G1 X.533 Y6.093 E4.70825
G1 X-.069 Y6.117 E4.73634
G1 X-.678 Y6.08 E4.76481
G1 X-1.2 Y5.995 E4.78952
G1 X-.864 Y6.44 F9000
G1 F1800
G1 X-1.352 Y6.361 E4.81257
G1 X-1.955 Y6.202 E4.84168
G1 X-2.541 Y5.986 E4.87079
G1 X-3.103 Y5.715 E4.8999
G1 X-3.636 Y5.391 E4.92901
G1 X-4.145 Y5.011 E4.95863
G1 X-4.639 Y4.558 E4.98988
G1 X-5.083 Y4.057 E5.02113
G1 X-5.454 Y3.542 E5.05075
G1 X-5.768 Y3.003 E5.07986
G1 X-6.029 Y2.436 E5.10896
G1 X-6.234 Y1.848 E5.13802
G1 X-6.388 Y1.213 E5.16851
G1 X-6.478 Y.566 E5.19899
G1 X-6.502 Y-.057 E5.22805
G1 X-6.467 Y-.68 E5.25716
G1 X-6.372 Y-1.296 E5.28627
G1 X-6.216 Y-1.912 E5.31589
G1 X-5.99 Y-2.531 E5.34663
G1 X-5.715 Y-3.103 E5.37625
G1 X-5.385 Y-3.645 E5.40587
G1 X-4.989 Y-4.172 E5.43661
G1 X-4.558 Y-4.638 E5.46623
G1 X-4.093 Y-5.053 E5.49529
G1 X-3.565 Y-5.438 E5.52577
G1 X-3.002 Y-5.768 E5.55626
G1 X-2.436 Y-6.029 E5.58531
G1 X-1.848 Y-6.234 E5.61438
G1 X-1.213 Y-6.388 E5.64486
G1 X-.566 Y-6.478 E5.67534
G1 X.068 Y-6.503 E5.70491
G1 X.725 Y-6.463 E5.73565
G1 X1.352 Y-6.361 E5.76527
G1 X1.955 Y-6.202 E5.79438
G1 X2.541 Y-5.986 E5.82349
G1 X3.103 Y-5.715 E5.8526
G1 X3.636 Y-5.391 E5.88171
G1 X4.145 Y-5.011 E5.91133
G1 X4.631 Y-4.566 E5.94207
G1 X5.054 Y-4.092 E5.97169
G1 X5.422 Y-3.589 E6.0008
G1 X5.747 Y-3.043 E6.03042
G1 X6.03 Y-2.436 E6.06167
G1 X6.248 Y-1.803 E6.09292
G1 X6.394 Y-1.185 E6.12254
G1 X6.478 Y-.567 E6.15165
G1 X6.502 Y.057 E6.18076
G1 X6.466 Y.691 E6.21038
G1 X6.363 Y1.341 E6.24112
G1 X6.202 Y1.955 E6.27074
G1 X5.986 Y2.541 E6.29985
G1 X5.71 Y3.113 E6.32947
G1 X5.366 Y3.674 E6.36021
G1 X4.981 Y4.18 E6.38983
G1 X4.558 Y4.638 E6.41894
G1 X4.093 Y5.053 E6.448
G1 X3.565 Y5.438 E6.47848
G1 X3.002 Y5.768 E6.50897
G1 X2.436 Y6.029 E6.53802
G1 X1.837 Y6.238 E6.56765
G1 X1.196 Y6.392 E6.59839
G1 X.567 Y6.478 E6.628
G1 X-.068 Y6.503 E6.65763
G1 X-.397 Y6.491 E6.673
G1 X-.805 Y6.45 E6.69214
G1 X-.466 Y6.872 F9000
G1 F1800
G1 X-.773 Y6.845 E6.70651
G1 X-1.432 Y6.738 E6.73766
G1 X-2.071 Y6.57 E6.7685
G1 X-2.692 Y6.341 E6.79934
G1 X-3.287 Y6.054 E6.83018
G1 X-3.852 Y5.711 E6.86101
G1 X-4.387 Y5.311 E6.89217
G1 X-4.914 Y4.829 E6.9255
G1 X-5.16 Y4.565 E6.94232
G1 X-5.387 Y4.294 E6.95884
G1 X-5.777 Y3.752 E6.98999
G1 X-6.11 Y3.181 E7.02083
G1 X-6.387 Y2.581 E7.05166
G1 X-6.605 Y1.957 E7.08247
G1 X-6.768 Y1.285 E7.11474
G1 X-6.862 Y.6 E7.14701
G1 X-6.888 Y-.06 E7.17782
G1 X-6.851 Y-.72 E7.20866
G1 X-6.75 Y-1.373 E7.2395
G1 X-6.586 Y-2.021 E7.27065
G1 X-6.344 Y-2.686 E7.30367
G1 X-6.054 Y-3.287 E7.33482
G1 X-5.708 Y-3.858 E7.36597
G1 X-5.282 Y-4.423 E7.39899
G1 X-4.828 Y-4.913 E7.43014
G1 X-4.336 Y-5.353 E7.46094
G1 X-3.777 Y-5.761 E7.49322
G1 X-3.18 Y-6.111 E7.52549
G1 X-2.581 Y-6.387 E7.55629
G1 X-1.957 Y-6.605 E7.5871
G1 X-1.285 Y-6.768 E7.61937
G1 X-.6 Y-6.862 E7.65164
G1 X.067 Y-6.889 E7.68276
G1 X.421 Y-6.876 E7.69927
G1 X.773 Y-6.845 E7.71579
G1 X1.432 Y-6.738 E7.74694
G1 X2.071 Y-6.57 E7.77778
G1 X2.692 Y-6.341 E7.80862
G1 X3.287 Y-6.054 E7.83946
G1 X3.852 Y-5.711 E7.87029
G1 X4.387 Y-5.311 E7.90144
G1 X4.909 Y-4.833 E7.93446
G1 X5.354 Y-4.335 E7.96562
G1 X5.744 Y-3.802 E7.99646
G1 X6.086 Y-3.228 E8.0276
G1 X6.388 Y-2.581 E8.06094
G1 X6.62 Y-1.905 E8.09426
G1 X6.773 Y-1.255 E8.12542
G1 X6.862 Y-.6 E8.15625
G1 X6.888 Y.06 E8.18709
G1 X6.851 Y.727 E8.21824
G1 X6.74 Y1.426 E8.25126
G1 X6.57 Y2.071 E8.28241
G1 X6.341 Y2.692 E8.31325
G1 X6.051 Y3.293 E8.3444
G1 X5.681 Y3.897 E8.37742
G1 X5.277 Y4.428 E8.40857
G1 X4.828 Y4.913 E8.43941
G1 X4.336 Y5.353 E8.47022
G1 X3.777 Y5.761 E8.50249
G1 X3.18 Y6.111 E8.53476
G1 X2.581 Y6.387 E8.56556
G1 X1.95 Y6.607 E8.59672
G1 X1.262 Y6.772 E8.62974
G1 X.6 Y6.862 E8.66088
G1 X-.067 Y6.889 E8.69204
G1 X-.407 Y6.877 E8.7079
G1 X-.066 Y7.275 F9000
;TYPE:External perimeter
G1 F1800
G1 X-.821 Y7.228 E8.7432
G1 X-1.513 Y7.116 E8.77588
G1 X-2.188 Y6.938 E8.80844
G1 X-2.842 Y6.696 E8.84101
G1 X-3.471 Y6.393 E8.87358
G1 X-4.068 Y6.031 E8.90614
G1 X-4.629 Y5.612 E8.93883
G1 X-5.189 Y5.099 E8.97424
G1 X-5.692 Y4.531 E9.00965
G1 X-6.101 Y3.962 E9.04233
G1 X-6.453 Y3.359 E9.0749
G1 X-6.745 Y2.725 E9.10746
G1 X-6.975 Y2.066 E9.14002
G1 X-7.147 Y1.357 E9.17408
G1 X-7.247 Y.634 E9.20813
G1 X-7.274 Y-.064 E9.24069
G1 X-7.235 Y-.76 E9.27325
G1 X-7.129 Y-1.45 E9.30582
G1 X-6.956 Y-2.129 E9.33851
G1 X-6.698 Y-2.84 E9.3738
G1 X-6.393 Y-3.471 E9.40648
G1 X-6.03 Y-4.07 E9.43916
G1 X-5.574 Y-4.674 E9.47446
G1 X-5.099 Y-5.189 E9.50714
G1 X-4.578 Y-5.653 E9.5397
G1 X-3.989 Y-6.084 E9.57376
G1 X-3.359 Y-6.453 E9.60781
G1 X-2.725 Y-6.745 E9.64037
G1 X-2.066 Y-6.975 E9.67292
G1 X-1.357 Y-7.147 E9.70698
G1 X-.634 Y-7.247 E9.74104
G1 X.066 Y-7.275 E9.77371
G1 X.821 Y-7.228 E9.80901
G1 X1.512 Y-7.116 E9.84168
G1 X2.188 Y-6.938 E9.87425
G1 X2.842 Y-6.696 E9.90682
G1 X3.471 Y-6.393 E9.93939
G1 X4.068 Y-6.031 E9.97195
G1 X4.629 Y-5.612 E10.00464
G1 X5.187 Y-5.101 E10.03993
G1 X5.654 Y-4.578 E10.07262
G1 X6.066 Y-4.015 E10.10518
G1 X6.424 Y-3.413 E10.13786
G1 X6.745 Y-2.725 E10.17328
G1 X6.992 Y-2.008 E10.20868
G1 X7.153 Y-1.326 E10.24137
G1 X7.247 Y-.634 E10.27393
G1 X7.274 Y.064 E10.3065
G1 X7.235 Y.763 E10.33918
G1 X7.116 Y1.51 E10.37448
G1 X6.938 Y2.188 E10.40716
G1 X6.696 Y2.842 E10.43973
G1 X6.392 Y3.473 E10.47241
G1 X5.997 Y4.119 E10.50771
G1 X5.573 Y4.676 E10.54039
G1 X5.099 Y5.189 E10.57295
G1 X4.578 Y5.653 E10.60551
G1 X3.989 Y6.084 E10.63957
G1 X3.359 Y6.453 E10.67363
G1 X2.725 Y6.745 E10.70618
G1 X2.064 Y6.976 E10.73886
G1 X1.328 Y7.153 E10.77416
G1 X.634 Y7.247 E10.80684
G1 X-.006 Y7.272 E10.83672
G1 X-.262 Y6.926 F9000
G1 E7.83672 F1500
G92 E0
G1 X3.125 Y-5.115 F9000
G1 E3 F1500
;TYPE:Solid infill
;WIDTH:0.45282
G1 F1800
G1 X4.161 Y-4.079 E3.06884
G1 X4.528 Y-3.667 E3.09479
G1 X4.859 Y-3.216 E3.12106
G1 X5.152 Y-2.723 E3.14801
G1 X5.314 Y-2.377 E3.16597
G1 X2.373 Y-5.317 E3.3614
G1 X1.752 Y-5.557 E3.39268
G1 X1.524 Y-5.618 E3.40379
G1 X5.622 Y-1.519 E3.67615
G1 X5.729 Y-1.062 E3.69824
G1 X5.761 Y-.831 E3.7092
G1 X.83 Y-5.762 E4.03691
G1 X.642 Y-5.792 E4.04588
G1 X.22 Y-5.822 E4.06573
G1 X5.816 Y-.227 E4.43763
G1 X5.827 Y.051 E4.45068
G1 X5.812 Y.319 E4.46327
G1 X-.319 Y-5.812 E4.87073
G1 X-.506 Y-5.805 E4.87951
G1 X-.818 Y-5.762 E4.89432
G1 X5.763 Y.819 E5.33171
G1 X5.68 Y1.286 E5.35396
G1 X-1.283 Y-5.677 E5.81672
