; generated by PrusaSlicer 2.4.0-beta3+win64 on 2021-12-05 at 20:12:42 UTC

; 

; external perimeters extrusion width = 0.45mm
; perimeters extrusion width = 0.45mm
; infill extrusion width = 0.45mm
; solid infill extrusion width = 0.45mm
; top infill extrusion width = 0.40mm

;TYPE:Custom
; **** Start of Start GCode: FlashForge Creator 3 ****
M118 X150.00 Y125.00 Z200.00 T0 T1
; todo: need to post process Active extruders in m118

G90 ; absolute positioning
M108 T0 ; tool change
G1 X187 Y0.000 F9000 ; Move initial extruder over anti-ooze plate (9-point Bed Levelling sometimes leaves it off plate)

G1 Z0.000 F420 ;
G92 Z-0.05 ; Value substituted by FFPP script (FFPP-filament_extra_z_offset)(negative is printing higher in air)

M140 S90 T0 ; set bed temperature
M104 S240 T0 ; set right extruder temp
M104 S0 T1 ; set left extruder temp

M7 T0 ; wait for platform
M6 T0 ; wait for temp
M6 T1 ; wait for temp

M106 ; Extruder/Heat Break fan on
M651 S255 ; chassis fan on (after heating reached to speed up heating)

; M652 ; chassis fan off 
; M109 T1/2 only if dupe or mirror

;layer_count: 239 ; Value substituted by FFPP script (FFPP-calculated-total_layer_count)
; **** End of Start GCode: FlashForge Creator 3 ****
G21 ; set units to millimeters
G90 ; use absolute coordinates
M82 ; use absolute distances for extrusion
G92 E0
; **** Start of Filament-Specific Start GCode: EconoFil PETG ****
; FFPP-filament_extra_z_offset: 0.05 ; Value parsed by FFPP script
; **** End of Filament-Specific Start GCode: EconoFil PETG ****
M106 S255
;LAYER_CHANGE
;Z:0.3
;HEIGHT:0.3
; **** Start of Before Layer Change GCode: FlashForge Creator 3 ****
; FFPP-layer_z_height: 0.3 ; Value parsed by FFPP script
;layer:0.300 ; Value substituted by FFPP script (FFPP-calculated-next_layer_height)
; **** End of Before Layer Change GCode: FlashForge Creator 3 ****
G1 E-3 F1500
G92 E0
G1 Z.3 F420
; **** Start of After Layer Change GCode: FlashForge Creator 3 ****
; **** End of After Layer Change GCode: FlashForge Creator 3 ****
G1 X-.896 Y14.839 F9000
G1 E3 F1500
M204 S1000
;TYPE:Skirt/Brim
;WIDTH:0.45
G1 F1800
G1 X-25.396 Y13.359 E4.14511
G1 X-26.946 Y12.983 E4.2195
G1 X-28.341 Y12.358 E4.29081
G1 X-29.703 Y11.405 E4.36838
G1 X-30.672 Y10.425 E4.43268
G1 X-31.316 Y9.546 E4.48352
G1 X-31.945 Y8.367 E4.54587
G1 X-32.331 Y7.29 E4.59924
G1 X-32.57 Y6.182 E4.65214
G1 X-32.667 Y4.893 E4.71244
G1 X-32.66 Y-5.219 E5.18418
G1 X-32.448 Y-6.83 E5.26001
G1 X-32.163 Y-7.815 E5.30786
G1 X-31.751 Y-8.782 E5.3569
G1 X-31.335 Y-9.517 E5.39628
G1 X-30.733 Y-10.352 E5.44431
G1 X-29.429 Y-11.63 E5.52949
G1 X-28.461 Y-12.289 E5.58411
G1 X-27.399 Y-12.812 E5.63935
G1 X-26.166 Y-13.21 E5.69979
G1 X-25.013 Y-13.406 E5.75435
G1 X-1.25 Y-14.867 E6.86508
G1 X.33 Y-14.904 E6.93882
G1 X3.141 Y-14.686 E7.07036
G1 X6.015 Y-14.071 E7.20749
G1 X8.503 Y-13.196 E7.33051
G1 X11.051 Y-11.916 E7.46355
G1 X13.422 Y-10.306 E7.59727
G1 X15.528 Y-8.43 E7.72883
G1 X17.402 Y-6.258 E7.86266
G1 X18.976 Y-3.848 E7.99695
G1 X19.618 Y-2.29 E8.07557
G1 X19.923 Y-.673 E8.15236
G1 X19.942 Y.385 E8.2017
G1 X19.855 Y1.243 E8.24198
G1 X19.454 Y2.787 E8.31639
G1 X18.597 Y4.5 E8.40573
G1 X17.127 Y6.615 E8.52591
G1 X15.562 Y8.395 E8.63645
G1 X13.816 Y9.992 E8.74686
G1 X12.343 Y11.096 E8.83275
G1 X10.76 Y12.083 E8.91978
G1 X9.183 Y12.895 E9.00253
G1 X7.425 Y13.617 E9.09119
G1 X5.659 Y14.169 E9.17753
G1 X3.805 Y14.58 E9.26613
G1 X2.037 Y14.816 E9.34935
G1 X.22 Y14.906 E9.43423
G1 X-.836 Y14.842 E9.48357
G1 X-.814 Y14.472 F9000
G1 F1800
G1 X-25.338 Y12.978 E10.62985
G1 X-26.819 Y12.619 E10.70095
G1 X-28.154 Y12.021 E10.76919
G1 X-29.45 Y11.115 E10.84297
G1 X-30.604 Y9.893 E10.92139
G1 X-31.245 Y8.914 E10.97598
G1 X-31.758 Y7.8 E11.03319
G1 X-32.061 Y6.796 E11.08213
G1 X-32.238 Y5.731 E11.1325
G1 X-32.252 Y-5.58 E11.66017
G1 X-31.926 Y-7.302 E11.74193
G1 X-31.289 Y-8.833 E11.8193
G1 X-30.355 Y-10.202 E11.89663
G1 X-29.084 Y-11.411 E11.97846
G1 X-28.159 Y-12.017 E12.03008
G1 X-27.15 Y-12.497 E12.08217
G1 X-26.078 Y-12.835 E12.13461
G1 X-24.977 Y-13.023 E12.18673
G1 X-1.227 Y-14.482 E13.29685
G1 X.328 Y-14.519 E13.36939
G1 X3.085 Y-14.304 E13.49842
G1 X5.912 Y-13.7 E13.6333
G1 X8.351 Y-12.841 E13.7539
G1 X10.854 Y-11.585 E13.88456
G1 X13.183 Y-10.003 E14.01593
G1 X15.255 Y-8.157 E14.14539
G1 X17.153 Y-5.948 E14.28129
G1 X18.653 Y-3.634 E14.40992
G1 X19.267 Y-2.118 E14.48625
G1 X19.453 Y-1.308 E14.52499
G1 X19.557 Y-.358 E14.56958
G1 X19.465 Y1.234 E14.644
G1 X18.991 Y2.913 E14.72539
G1 X18.034 Y4.673 E14.81887
G1 X16.625 Y6.626 E14.93123
G1 X15.017 Y8.395 E15.04276
G1 X13.228 Y9.969 E15.15392
G1 X11.707 Y11.058 E15.24119
G1 X10.251 Y11.926 E15.32027
G1 X8.651 Y12.712 E15.4034
G1 X7.066 Y13.335 E15.48289
G1 X5.35 Y13.852 E15.56651
G1 X3.62 Y14.22 E15.64902
G1 X1.815 Y14.448 E15.73388
G1 X-.018 Y14.521 E15.81948
G1 X-.754 Y14.476 E15.85387
; printing object 3DBenchy.stl id:0 copy 0
;WIPE_START
G1 F7200
G1 X-15.127 Y13.6 E13.00387
;WIPE_END
G1 E12.85387 F1500
G92 E0
G1 X-6.874 Y.07 F9000
G1 E3 F1500
;TYPE:Perimeter
G1 F1800
G1 X-6.875 Y-.939 E3.04708
G1 X-6.542 Y-.89 E3.06277
G1 X-6.478 Y-.765 E3.06932
G1 X-6.418 Y-.546 E3.07993
G1 X-6.38 Y-.162 E3.09794
G1 X-6.396 Y.275 E3.11831
G1 X-6.435 Y.502 E3.12907
G1 X-6.515 Y.732 E3.14043
G1 X-6.562 Y.806 E3.14452
G1 X-6.622 Y.835 E3.14766
G1 X-6.873 Y.87 E3.15949
G1 X-6.874 Y.13 E3.19401
G1 X-7.259 Y1.181 F9000
G1 F1800
G1 X-7.261 Y-1.342 E3.31168
G1 X-6.767 Y-1.32 E3.33472
G1 X-6.369 Y-1.245 E3.35362
G1 X-6.244 Y-1.142 E3.36116
G1 X-6.117 Y-.902 E3.37386
G1 X-6.036 Y-.607 E3.38811
G1 X-5.993 Y-.174 E3.40844
G1 X-6.011 Y.315 E3.43126
G1 X-6.061 Y.599 E3.44469
G1 X-6.161 Y.888 E3.45899
G1 X-6.209 Y.977 E3.46372
G1 X-6.314 Y1.105 E3.47142
G1 X-6.495 Y1.202 E3.48098
G1 X-6.635 Y1.233 E3.4877
G1 X-6.955 Y1.266 E3.50271
G1 X-7.262 Y1.274 E3.51702
G1 X-7.26 Y1.241 E3.51857
G1 X-6.931 Y1.651 F9000
;TYPE:External perimeter
G1 F1800
G1 X-7.57 Y1.667 E3.54839
G1 X-7.623 Y1.633 E3.55135
G1 X-7.651 Y1.58 E3.55413
G1 X-7.646 Y-1.683 E3.70639
G1 X-7.635 Y-1.706 E3.70758
G1 X-7.542 Y-1.724 E3.71202
G1 X-7.214 Y-1.728 E3.72733
G1 X-6.725 Y-1.704 E3.75015
G1 X-6.308 Y-1.632 E3.7699
G1 X-6.213 Y-1.599 E3.77457
G1 X-6.127 Y-1.553 E3.77916
G1 X-5.999 Y-1.449 E3.78682
G1 X-5.931 Y-1.37 E3.79171
G1 X-5.822 Y-1.19 E3.80152
G1 X-5.699 Y-.863 E3.81781
G1 X-5.655 Y-.669 E3.8271
G1 X-5.607 Y-.186 E3.84975
G1 X-5.627 Y.355 E3.87503
G1 X-5.686 Y.696 E3.89113
G1 X-5.807 Y1.045 E3.90837
G1 X-5.965 Y1.298 E3.92229
G1 X-6.142 Y1.46 E3.93348
G1 X-6.367 Y1.568 E3.94514
G1 X-6.573 Y1.615 E3.95498
G1 X-6.871 Y1.645 E3.96897
G1 X-7.153 Y1.319 F9000
G1 X-6.658 Y.489
;TYPE:Gap fill
;WIDTH:0.12376
G1 F1800
G1 X-6.651 Y.446 E3.96928
;WIDTH:0.157851
G1 X-6.634 Y.25 E3.97151
;WIDTH:0.172942
G1 X-6.627 Y-.154 E3.97681
;WIDTH:0.172943
G1 X-6.645 Y-.509 E3.98148
;WIDTH:0.137902
G1 X-6.658 Y-.624 E3.98251
;WIPE_START
G1 F7200
G1 X-6.645 Y-.509 E3.9596
;WIPE_END
G1 E.98251 F1500
G92 E0
G1 X1.124 Y3.322 F9000
G1 E3 F1500
;TYPE:External perimeter
;WIDTH:0.45
G1 F1800
G1 X.913 Y3.258 E3.01027
G1 X.742 Y3.13 E3.02024
G1 X.552 Y2.867 E3.03536
G1 X.106 Y2.063 E3.07827
G1 X-.05 Y2.408 E3.09595
G1 X-.243 Y2.736 E3.11372
G1 X-.45 Y3.029 E3.13044
G1 X-.608 Y3.185 E3.14079
G1 X-.728 Y3.259 E3.14738
G1 X-.882 Y3.308 E3.15493
G1 X-1.137 Y3.284 E3.16686
G1 X-1.281 Y3.222 E3.17417
G1 X-1.412 Y3.133 E3.1816
G1 X-1.555 Y2.965 E3.19189
G1 X-1.621 Y2.775 E3.20128
G1 X-1.626 Y2.623 E3.20834
G1 X-1.584 Y2.413 E3.21834
G1 X-1.518 Y2.245 E3.22675
G1 X-.989 Y1.319 E3.27651
G1 X-.663 Y.859 E3.30282
G1 X-.633 Y.771 E3.30717
G1 X-.663 Y.674 E3.3119
G1 X-.895 Y.323 E3.33155
G1 X-1.359 Y-.492 E3.37531
G1 X-1.455 Y-.686 E3.38538
G1 X-1.539 Y-.936 E3.3977
G1 X-1.554 Y-1.205 E3.41026
G1 X-1.514 Y-1.348 E3.41722
G1 X-1.443 Y-1.467 E3.42367
G1 X-1.347 Y-1.57 E3.43026
G1 X-1.222 Y-1.653 E3.43723
G1 X-1.082 Y-1.713 E3.44435
G1 X-.931 Y-1.743 E3.45155
G1 X-.781 Y-1.742 E3.45851
G1 X-.593 Y-1.683 E3.46772
G1 X-.462 Y-1.601 E3.47493
G1 X-.295 Y-1.439 E3.48578
G1 X-.067 Y-1.109 E3.5045
G1 X.19 Y-.609 E3.53071
G1 X.354 Y-.98 E3.54962
G1 X.504 Y-1.251 E3.56408
G1 X.69 Y-1.476 E3.57767
G1 X.879 Y-1.633 E3.58914
G1 X1.12 Y-1.737 E3.60139
G1 X1.272 Y-1.744 E3.60848
G1 X1.404 Y-1.715 E3.61481
G1 X1.53 Y-1.653 E3.62136
G1 X1.651 Y-1.557 E3.62858
G1 X1.795 Y-1.36 E3.63998
G1 X1.85 Y-1.209 E3.64744
G1 X1.864 Y-1.065 E3.65421
G1 X1.84 Y-.899 E3.66201
G1 X1.786 Y-.753 E3.66927
G1 X1.479 Y-.212 E3.69831
G1 X1.103 Y.404 E3.73197
G1 X1.032 Y.573 E3.74051
G1 X1.009 Y.699 E3.7465
G1 X1.019 Y.814 E3.75188
G1 X1.065 Y.935 E3.7579
G1 X1.826 Y2.221 E3.82762
G1 X1.885 Y2.384 E3.8357
G1 X1.922 Y2.63 E3.84734
G1 X1.892 Y2.868 E3.85852
G1 X1.795 Y3.062 E3.86862
G1 X1.691 Y3.169 E3.87558
G1 X1.566 Y3.248 E3.88251
G1 X1.357 Y3.316 E3.89277
G1 X1.184 Y3.32 E3.90085
G1 X.988 Y3.495 F9000
;WIPE_START
G1 F7200
G1 X.913 Y3.258 E3.84589
G1 X.742 Y3.13 E3.80359
G1 X.552 Y2.867 E3.73945
G1 X.106 Y2.063 E3.55741
G1 X-.05 Y2.408 E3.48239
G1 X-.243 Y2.736 E3.40703
G1 X-.45 Y3.029 E3.33609
G1 X-.608 Y3.185 E3.29217
G1 X-.728 Y3.259 E3.26424
G1 X-.882 Y3.308 E3.2322
G1 X-1.137 Y3.284 E3.18157
G1 X-1.281 Y3.222 E3.15057
G1 X-1.412 Y3.133 E3.11907
G1 X-1.555 Y2.965 E3.07539
G1 X-1.621 Y2.775 E3.03557
G1 X-1.626 Y2.623 E3.00564
G1 X-1.584 Y2.413 E2.96318
G1 X-1.518 Y2.245 E2.9275
G1 X-.989 Y1.319 E2.71642
G1 X-.663 Y.859 E2.6048
G1 X-.633 Y.771 E2.58636
G1 X-.663 Y.674 E2.56629
G1 X-.895 Y.323 E2.48294
G1 X-1.359 Y-.492 E2.29727
G1 X-1.455 Y-.686 E2.25459
G1 X-1.539 Y-.936 E2.20229
G1 X-1.554 Y-1.205 E2.14904
G1 X-1.514 Y-1.348 E2.11951
G1 X-1.443 Y-1.467 E2.09211
G1 X-1.347 Y-1.57 E2.06419
G1 X-1.222 Y-1.653 E2.0346
G1 X-1.082 Y-1.713 E2.00438
G1 X-.931 Y-1.743 E1.97388
G1 X-.781 Y-1.742 E1.94432
G1 X-.593 Y-1.683 E1.90527
G1 X-.462 Y-1.601 E1.87466
G1 X-.295 Y-1.439 E1.82864
G1 X-.067 Y-1.109 E1.74924
G1 X.19 Y-.609 E1.63804
G1 X.354 Y-.98 E1.55781
G1 X.504 Y-1.251 E1.49646
G1 X.69 Y-1.476 E1.43882
G1 X.879 Y-1.633 E1.39016
G1 X1.12 Y-1.737 E1.33819
G1 X1.272 Y-1.744 E1.30812
G1 X1.404 Y-1.715 E1.28126
G1 X1.53 Y-1.653 E1.25348
G1 X1.651 Y-1.557 E1.22284
G1 X1.795 Y-1.36 E1.17448
G1 X1.85 Y-1.209 E1.14286
G1 X1.864 Y-1.065 E1.11411
G1 X1.84 Y-.899 E1.08103
G1 X1.788 Y-.756 E1.05085
;WIPE_END
G1 E.90085 F1500
G92 E0
G1 X2.769 Y5.846 F9000
G1 E3 F1500
G1 F1800
G1 X2.555 Y5.803 E3.0102
G1 X2.403 Y5.727 E3.01809
G1 X2.211 Y5.528 E3.03101
G1 X2.107 Y5.31 E3.04227
G1 X2.068 Y5.148 E3.05002
G1 X2.059 Y4.996 E3.05715
G1 X2.1 Y4.794 E3.06674
G1 X2.212 Y4.631 E3.076
G1 X2.383 Y4.52 E3.08549
G1 X2.861 Y4.382 E3.10872
G1 X3.018 Y4.312 E3.11673
G1 X3.153 Y4.212 E3.12458
G1 X3.223 Y4.138 E3.12931
G1 X3.359 Y3.911 E3.14167
G1 X3.578 Y3.34 E3.1702
G1 X3.764 Y2.952 E3.19028
G1 X3.803 Y2.843 E3.19568
G1 X3.823 Y2.726 E3.2012
G1 X3.811 Y2.609 E3.20672
G1 X3.781 Y2.51 E3.21154
G1 X3.508 Y1.886 E3.24331
G1 X2.914 Y.282 E3.32312
G1 X2.614 Y-.448 E3.35995
G1 X2.522 Y-.769 E3.3755
G1 X2.489 Y-1.132 E3.3925
G1 X2.546 Y-1.406 E3.40556
G1 X2.627 Y-1.544 E3.41306
G1 X2.784 Y-1.676 E3.42261
G1 X3.05 Y-1.744 E3.43541
G1 X3.289 Y-1.724 E3.4466
G1 X3.491 Y-1.656 E3.45654
G1 X3.686 Y-1.528 E3.46744
G1 X3.824 Y-1.359 E3.47761
G1 X3.918 Y-1.147 E3.48843
G1 X4.104 Y-.5 E3.51985
G1 X4.57 Y.668 E3.57851
G1 X4.74 Y.105 E3.60593
G1 X5.115 Y-.97 E3.65906
G1 X5.252 Y-1.261 E3.67406
G1 X5.405 Y-1.486 E3.68676
G1 X5.569 Y-1.641 E3.69728
G1 X5.752 Y-1.73 E3.70677
G1 X5.948 Y-1.741 E3.71597
G1 X6.142 Y-1.672 E3.72558
G1 X6.318 Y-1.535 E3.73595
G1 X6.455 Y-1.351 E3.74664
G1 X6.541 Y-1.131 E3.75768
G1 X6.558 Y-.923 E3.76741
G1 X6.488 Y-.634 E3.78131
G1 X6.203 Y.013 E3.81427
G1 X5.988 Y.665 E3.8463
G1 X5.036 Y3.325 E3.97808
G1 X4.655 Y4.307 E4.02726
G1 X4.384 Y4.904 E4.05784
G1 X4.267 Y5.102 E4.06858
G1 X4.095 Y5.323 E4.08164
G1 X3.956 Y5.45 E4.09042
G1 X3.801 Y5.56 E4.09929
G1 X3.535 Y5.691 E4.1131
G1 X3.313 Y5.768 E4.12406
G1 X3.017 Y5.835 E4.13825
G1 X2.829 Y5.843 E4.14702
G1 X2.644 Y6.025 F9000
;WIPE_START
G1 F7200
G1 X2.555 Y5.803 E4.09213
G1 X2.403 Y5.727 E4.05868
G1 X2.211 Y5.528 E4.00388
G1 X2.107 Y5.31 E3.95609
G1 X2.068 Y5.148 E3.92323
G1 X2.059 Y4.996 E3.89298
G1 X2.1 Y4.794 E3.8523
G1 X2.212 Y4.631 E3.813
G1 X2.383 Y4.52 E3.77273
G1 X2.861 Y4.382 E3.67422
G1 X3.018 Y4.312 E3.64022
G1 X3.153 Y4.212 E3.60693
G1 X3.223 Y4.138 E3.58684
G1 X3.359 Y3.911 E3.53442
G1 X3.578 Y3.34 E3.4134
G1 X3.764 Y2.952 E3.3282
G1 X3.803 Y2.843 E3.30528
G1 X3.823 Y2.726 E3.28187
G1 X3.811 Y2.609 E3.25847
G1 X3.781 Y2.51 E3.23804
G1 X3.508 Y1.886 E3.10325
G1 X2.914 Y.282 E2.76466
G1 X2.614 Y-.448 E2.60843
G1 X2.522 Y-.769 E2.54247
G1 X2.489 Y-1.132 E2.47033
G1 X2.546 Y-1.406 E2.41493
G1 X2.627 Y-1.544 E2.38311
G1 X2.784 Y-1.676 E2.34259
G1 X3.05 Y-1.744 E2.28829
G1 X3.289 Y-1.724 E2.24082
G1 X3.491 Y-1.656 E2.19866
G1 X3.686 Y-1.528 E2.15244
G1 X3.824 Y-1.359 E2.10926
G1 X3.918 Y-1.147 E2.06336
G1 X4.104 Y-.5 E1.93011
G1 X4.57 Y.668 E1.68122
G1 X4.74 Y.105 E1.5649
G1 X5.115 Y-.97 E1.33953
G1 X5.206 Y-1.164 E1.29702
;WIPE_END
G1 E1.14702 F1500
G92 E0
G1 X7.652 Y3.328 F9000
G1 E3 F1500
G1 F1800
G1 X7.493 Y3.308 E3.00749
G1 X7.315 Y3.238 E3.01638
G1 X7.201 Y3.148 E3.0232
G1 X7.092 Y3.008 E3.03143
G1 X6.989 Y2.728 E3.04538
G1 X6.971 Y2.475 E3.05721
G1 X7.013 Y2.232 E3.06869
G1 X7.113 Y1.989 E3.08096
G1 X7.286 Y1.705 E3.09647
G1 X8.77 Y-.342 E3.21444
G1 X8.381 Y-.3 E3.2327
G1 X8.004 Y-.298 E3.2503
G1 X7.576 Y-.345 E3.27037
G1 X7.419 Y-.391 E3.27802
G1 X7.234 Y-.492 E3.28787
G1 X7.078 Y-.693 E3.29971
G1 X7.016 Y-.909 E3.31022
G1 X7.018 Y-1.14 E3.32099
G1 X7.057 Y-1.298 E3.32857
G1 X7.125 Y-1.44 E3.33593
G1 X7.265 Y-1.586 E3.34539
G1 X7.454 Y-1.679 E3.35519
G1 X7.682 Y-1.728 E3.36606
G1 X7.906 Y-1.744 E3.37654
G1 X10.051 Y-1.74 E3.47662
G1 X10.328 Y-1.672 E3.48994
G1 X10.493 Y-1.549 E3.49953
G1 X10.584 Y-1.421 E3.50685
G1 X10.668 Y-1.172 E3.51913
G1 X10.683 Y-.916 E3.53108
G1 X10.631 Y-.64 E3.54421
G1 X10.525 Y-.401 E3.55639
G1 X10.284 Y-.033 E3.57689
G1 X9.06 Y1.687 E3.67542
G1 X8.929 Y1.907 E3.68733
G1 X9.476 Y1.863 E3.71292
G1 X9.744 Y1.859 E3.72545
G1 X10.191 Y1.909 E3.7464
G1 X10.459 Y2.01 E3.75981
G1 X10.583 Y2.103 E3.76702
G1 X10.698 Y2.264 E3.77625
G1 X10.757 Y2.466 E3.78606
G1 X10.765 Y2.629 E3.79367
G1 X10.735 Y2.823 E3.80286
G1 X10.675 Y2.967 E3.81013
G1 X10.592 Y3.087 E3.8169
G1 X10.433 Y3.205 E3.82617
G1 X10.231 Y3.275 E3.83615
G1 X9.96 Y3.304 E3.84884
G1 X8.231 Y3.299 E3.92953
G1 X7.712 Y3.325 E3.95376
G1 X7.561 Y3.46 F9000
;WIPE_START
G1 F7200
G1 X7.493 Y3.308 E3.91022
G1 X7.315 Y3.238 E3.87251
G1 X7.201 Y3.148 E3.84358
G1 X7.092 Y3.008 E3.80869
G1 X6.989 Y2.728 E3.74952
G1 X6.971 Y2.475 E3.69932
G1 X7.013 Y2.232 E3.65061
G1 X7.113 Y1.989 E3.59855
G1 X7.286 Y1.705 E3.53277
G1 X8.77 Y-.342 E3.03233
G1 X8.381 Y-.3 E2.95486
G1 X8.004 Y-.298 E2.88019
G1 X7.576 Y-.345 E2.79502
G1 X7.419 Y-.391 E2.76256
G1 X7.234 Y-.492 E2.7208
G1 X7.078 Y-.693 E2.67056
G1 X7.016 Y-.909 E2.62597
G1 X7.018 Y-1.14 E2.58028
G1 X7.057 Y-1.298 E2.54813
G1 X7.125 Y-1.44 E2.5169
G1 X7.265 Y-1.586 E2.4768
G1 X7.454 Y-1.679 E2.43521
G1 X7.682 Y-1.728 E2.38909
G1 X7.906 Y-1.744 E2.34462
G1 X10.051 Y-1.74 E1.92006
G1 X10.328 Y-1.672 E1.86358
G1 X10.493 Y-1.549 E1.8229
G1 X10.584 Y-1.421 E1.79181
G1 X10.668 Y-1.172 E1.73975
G1 X10.683 Y-.916 E1.68904
G1 X10.631 Y-.64 E1.63334
G1 X10.525 Y-.401 E1.58167
G1 X10.284 Y-.033 E1.4947
G1 X9.139 Y1.576 E1.10376
;WIPE_END
G1 E.95376 F1500
G92 E0
G1 X2.195 Y.563 F9000
G1 E3 F1500
;TYPE:Perimeter
G1 F1800
G1 X2.792 Y2.175 E3.08022
G1 X3.026 Y2.708 E3.10734
G1 X2.868 Y3.035 E3.12429
G1 X2.663 Y3.573 E3.15113
G1 X2.619 Y3.646 E3.15512
G1 X2.169 Y3.779 E3.177
G1 X2.432 Y3.513 E3.19444
G1 X2.641 Y3.095 E3.21626
G1 X2.7 Y2.621 E3.23854
G1 X2.636 Y2.193 E3.2587
G1 X2.533 Y1.907 E3.27289
G1 X2.409 Y1.674 E3.28519
G1 X2.198 Y1.343 E3.30351
G1 X1.826 Y.701 E3.33815
G1 X2.081 Y.283 E3.36096
G1 X2.173 Y.507 E3.37224
;WIPE_START
G1 F7200
G1 X2.792 Y2.175 E3.02004
G1 X3.026 Y2.708 E2.90499
G1 X2.868 Y3.035 E2.83309
G1 X2.663 Y3.573 E2.71923
G1 X2.619 Y3.646 E2.70233
G1 X2.169 Y3.779 E2.60949
G1 X2.432 Y3.513 E2.53548
