; generated by PrusaSlicer 2.4.0-beta1+win64 on 2021-10-29 at 16:56:30 UTC

;

; external perimeters extrusion width = 0.45mm
; perimeters extrusion width = 0.45mm
; infill extrusion width = 0.45mm
; solid infill extrusion width = 0.45mm
; top infill extrusion width = 0.40mm
; support material extrusion width = 0.35mm
; first layer extrusion width = 0.50mm

;TYPE:Custom
; **** Start of Start GCode: FlashForge Creator 3 ****
M118 X150.00 Y125.00 Z200.00 T0 T1
; todo: need to post process Active extruders in m118

G90 ; absolute positioning
M108 T0 ; tool change
G1 X187.000 Y0.000 F7800 ; Move initial extruder over anti-ooze plate (9-point Bed Levelling sometimes leaves it off plate)

G1 Z0.000 F420 ;
G92 Z-0.040 ; Adjust Z-offset to 40 microns higher for PETG

M140 S70 T0 ; set bed temperature
M104 S230 T0 ; set right extruder temp
M104 S225 T1 ; set left extruder temp

M7 T0 ; wait for platform
M6 T0 ; wait for temp
M6 T1 ; wait for temp

M106 ; Extruder/Heat Break fan on
M651 S255 ; chassis fan on (after heating reached to speed up heating)

; M652 ; chassis fan off
; M109 T1/2 only if dupe or mirror

;layer_count: 54 ; Value substituted by FFPP script (FFPP-calculated-total_layer_count)
; **** End of Start GCode: FlashForge Creator 3 ****
G21 ; set units to millimeters
G90 ; use absolute coordinates
M82 ; use absolute distances for extrusion
G92 E0 ; reset extrusion distance
; **** Start of Tool Change GCode: FlashForge Creator 3 ****
M108 T0
; **** End of Tool Change GCode: FlashForge Creator 3 ****
G92 E0 ; reset extrusion distance
; **** Start of Filament-Specific Start GCode: EconoFil PETG ****
; FFPP-filament_extra_z_offset: 0.04 ; Value parsed by FFPP script
; **** End of Filament-Specific Start GCode: EconoFil PETG ****
M104 S225 T0 ; set extruder temperature
M6 T0 ; wait for extruder temperature to be reached
M106 S255 ; enable fan
;LAYER_CHANGE
;Z:0.3
;HEIGHT:0.3
; **** Start of Before Layer Change GCode: FlashForge Creator 3 ****
; FFPP-layer_z_height: 0.3 ; Value parsed by FFPP script
;layer:0.300 ; Value substituted by FFPP script (FFPP-calculated-next_layer_height)
; **** End of Before Layer Change GCode: FlashForge Creator 3 ****
G1 E-2 F1800 ; retract
G92 E0 ; reset extrusion distance
G1 Z.2 F420 ; lift Z
G1 Z.3 ; move to next layer (0)
; **** Start of After Layer Change GCode: FlashForge Creator 3 ****
; **** End of After Layer Change GCode: FlashForge Creator 3 ****
G1 Z.5 ; lift Z
G1 X-18.196 Y0 F7800 ; move to first skirt point
G1 Z.3 F420 ; restore layer Z
G1 E2 F1800 ;  ; unretract
M204 S1000 ; adjust acceleration
;TYPE:Skirt/Brim
;WIDTH:0.5
G1 F600
G1 X-18.196 Y-11.325 E2.6153 ; skirt
G1 X-17.799 Y-13.627 E2.74222 ; skirt
G1 X-16.653 Y-15.663 E2.86915 ; skirt
G1 X-14.892 Y-17.197 E2.99607 ; skirt
G1 X-12.719 Y-18.053 E3.12299 ; skirt
G1 X-11.325 Y-18.196 E3.19912 ; skirt
G1 X11.325 Y-18.196 E4.42973 ; skirt
G1 X13.627 Y-17.799 E4.55665 ; skirt
G1 X15.663 Y-16.653 E4.68357 ; skirt
G1 X17.197 Y-14.892 E4.8105 ; skirt
G1 X18.053 Y-12.719 E4.93742 ; skirt
G1 X18.196 Y-11.325 E5.01355 ; skirt
G1 X18.196 Y11.325 E6.24416 ; skirt
G1 X17.799 Y13.627 E6.37108 ; skirt
G1 X16.653 Y15.663 E6.498 ; skirt
G1 X14.892 Y17.197 E6.62492 ; skirt
G1 X12.719 Y18.053 E6.75185 ; skirt
G1 X11.325 Y18.196 E6.82798 ; skirt
G1 X-11.325 Y18.196 E8.05858 ; skirt
G1 X-13.627 Y17.799 E8.1855 ; skirt
G1 X-15.663 Y16.653 E8.31243 ; skirt
G1 X-17.197 Y14.892 E8.43935 ; skirt
G1 X-18.053 Y12.719 E8.56627 ; skirt
G1 X-18.196 Y11.325 E8.6424 ; skirt
G1 X-18.196 Y.06 E9.25445 ; skirt
G1 X-17.76 Y.06 F7800 ; move to first skirt point
G1 F600
G1 X-17.76 Y-11.325 E9.87301 ; skirt
G1 X-17.363 Y-13.55 E9.99581 ; skirt
G1 X-16.222 Y-15.5 E10.11861 ; skirt
G1 X-14.476 Y-16.936 E10.24142 ; skirt
G1 X-11.325 Y-17.76 E10.4184 ; skirt
G1 X11.325 Y-17.76 E11.649 ; skirt
G1 X13.55 Y-17.363 E11.7718 ; skirt
G1 X15.5 Y-16.222 E11.89461 ; skirt
G1 X16.936 Y-14.476 E12.01741 ; skirt
G1 X17.76 Y-11.325 E12.19439 ; skirt
G1 X17.76 Y11.325 E13.42499 ; skirt
G1 X17.363 Y13.55 E13.5478 ; skirt
G1 X16.222 Y15.5 E13.6706 ; skirt
G1 X14.476 Y16.936 E13.7934 ; skirt
G1 X11.325 Y17.76 E13.97038 ; skirt
G1 X-11.325 Y17.76 E15.20098 ; skirt
G1 X-13.55 Y17.363 E15.32379 ; skirt
G1 X-15.5 Y16.222 E15.44659 ; skirt
G1 X-16.936 Y14.476 E15.56939 ; skirt
G1 X-17.76 Y11.325 E15.74637 ; skirt
G1 X-17.76 Y.12 E16.35515 ; skirt
; printing object Merged id:0 copy 0
;WIPE_START
G1 F6240
G1 X-17.76 Y-6.813 E14.45515 ; wipe and retract
;WIPE_END
G1 E14.35515 F1800 ; retract
G92 E0 ; reset extrusion distance
G1 Z.5 F420 ; lift Z
G1 X11.325 Y11.325 F7800 ; move to first support material point
G1 Z.3 F420 ; restore layer Z
G1 E2 F1800 ;  ; unretract
;TYPE:Support material
G1 F600
G1 X-11.325 Y11.325 E3.2306 ; support material
G1 X-11.325 Y-11.325 E4.46121 ; support material
G1 X11.325 Y-11.325 E5.69181 ; support material
G1 X11.325 Y11.259 E6.91887 ; support material
G1 E4.91887 F1800 ; retract
G92 E0 ; reset extrusion distance
G1 Z.5 F420 ; lift Z
G1 X3.707 Y-5.453 F7800 ; move to first support material point
G1 Z.3 F420 ; restore layer Z
G1 E2 F1800 ;  ; unretract
G1 F600
G1 X-7.221 Y-5.453 E2.59376 ; support material
G1 X-7.631 Y-5.043 E2.62527 ; support material
G1 X-7.631 Y6.775 E3.26739 ; support material
G1 X-7.221 Y7.185 E3.29889 ; support material
G1 X4.597 Y7.185 E3.94101 ; support material
G1 X5.007 Y6.775 E3.97252 ; support material
G1 X5.007 Y-5.043 E4.61463 ; support material
G1 X4.597 Y-5.453 E4.64614 ; support material
G1 X3.773 Y-5.453 E4.69094 ; support material
G1 E2.69094 F1800 ; retract
G92 E0 ; reset extrusion distance
G1 Z.5 F420 ; lift Z
G1 X10.648 Y11.129 F7800 ; move to first support material point
G1 Z.3 F420 ; restore layer Z
G1 E2 F1800 ;  ; unretract
G1 F600
G1 X10.648 Y-10.933 E3.19865 ; support material
G1 X10.164 Y-10.933 E3.22495 ; support material
G1 X10.164 Y10.933 E4.41295 ; support material
G1 X9.68 Y10.933 E4.43925 ; support material
G1 X9.68 Y-10.933 E5.62725 ; support material
G1 X9.196 Y-10.933 E5.65355 ; support material
G1 X9.196 Y10.933 E6.84155 ; support material
G1 X8.712 Y10.933 E6.86785 ; support material
G1 X8.712 Y-10.933 E8.05585 ; support material
G1 X8.228 Y-10.933 E8.08215 ; support material
G1 X8.228 Y10.933 E9.27015 ; support material
G1 X7.744 Y10.933 E9.29645 ; support material
G1 X7.744 Y-10.933 E10.48445 ; support material
G1 X7.26 Y-10.933 E10.51075 ; support material
G1 X7.26 Y10.933 E11.69875 ; support material
G1 X6.776 Y10.933 E11.72505 ; support material
G1 X6.776 Y-10.933 E12.91305 ; support material
G1 X6.292 Y-10.933 E12.93935 ; support material
G1 X6.292 Y10.933 E14.12735 ; support material
G1 X5.808 Y10.933 E14.15365 ; support material
G1 X5.808 Y-10.933 E15.34165 ; support material
G1 X5.324 Y-10.933 E15.36795 ; support material
G1 X5.324 Y10.933 E16.55595 ; support material
G1 X4.84 Y10.933 E16.58225 ; support material
G1 X4.84 Y7.497 E16.76893 ; support material
G1 X4.76 Y7.577 E16.77511 ; support material
G1 X4.356 Y7.577 E16.79704 ; support material
G1 X4.356 Y10.933 E16.97935 ; support material
G1 X3.872 Y10.933 E17.00565 ; support material
G1 X3.872 Y7.577 E17.18795 ; support material
G1 X3.388 Y7.577 E17.21425 ; support material
G1 X3.388 Y10.933 E17.39656 ; support material
G1 X2.904 Y10.933 E17.42286 ; support material
G1 X2.904 Y7.577 E17.60517 ; support material
G1 X2.42 Y7.577 E17.63146 ; support material
G1 X2.42 Y10.933 E17.81377 ; support material
G1 X1.936 Y10.933 E17.84007 ; support material
G1 X1.936 Y7.577 E18.02238 ; support material
G1 X1.452 Y7.577 E18.04868 ; support material
G1 X1.452 Y10.933 E18.23099 ; support material
G1 X.968 Y10.933 E18.25728 ; support material
G1 X.968 Y7.577 E18.43959 ; support material
G1 X.484 Y7.577 E18.46589 ; support material
G1 X.484 Y10.933 E18.6482 ; support material
G1 X0 Y10.933 E18.6745 ; support material
G1 X0 Y7.577 E18.85681 ; support material
G1 X-.484 Y7.577 E18.8831 ; support material
G1 X-.484 Y10.933 E19.06541 ; support material
G1 X-.968 Y10.933 E19.09171 ; support material
G1 X-.968 Y7.577 E19.27402 ; support material
G1 X-1.452 Y7.577 E19.30032 ; support material
G1 X-1.452 Y10.933 E19.48262 ; support material
G1 X-1.936 Y10.933 E19.50892 ; support material
G1 X-1.936 Y7.577 E19.69123 ; support material
G1 X-2.42 Y7.577 E19.71753 ; support material
G1 X-2.42 Y10.933 E19.89984 ; support material
G1 X-2.904 Y10.933 E19.92614 ; support material
G1 X-2.904 Y7.577 E20.10844 ; support material
G1 X-3.388 Y7.577 E20.13474 ; support material
G1 X-3.388 Y10.933 E20.31705 ; support material
G1 X-3.872 Y10.933 E20.34335 ; support material
G1 X-3.872 Y7.577 E20.52566 ; support material
G1 X-4.356 Y7.577 E20.55195 ; support material
G1 X-4.356 Y10.933 E20.73426 ; support material
G1 X-4.84 Y10.933 E20.76056 ; support material
G1 X-4.84 Y7.577 E20.94287 ; support material
G1 X-5.324 Y7.577 E20.96917 ; support material
G1 X-5.324 Y10.933 E21.15148 ; support material
G1 X-5.808 Y10.933 E21.17777 ; support material
G1 X-5.808 Y7.577 E21.36008 ; support material
G1 X-6.292 Y7.577 E21.38638 ; support material
G1 X-6.292 Y10.933 E21.56869 ; support material
G1 X-6.776 Y10.933 E21.59499 ; support material
G1 X-6.776 Y7.577 E21.77729 ; support material
G1 X-7.26 Y7.577 E21.80359 ; support material
G1 X-7.26 Y10.933 E21.9859 ; support material
G1 X-7.744 Y10.933 E22.0122 ; support material
G1 X-7.744 Y7.216 E22.21413 ; support material
G1 X-8.023 Y6.938 E22.23554 ; support material
G1 X-8.023 Y-5.205 E22.8953 ; support material
G1 X-7.744 Y-5.484 E22.91671 ; support material
G1 X-7.744 Y-10.933 E23.21274 ; support material
G1 X-7.26 Y-10.933 E23.23904 ; support material
G1 X-7.26 Y-5.845 E23.51546 ; support material
G1 X-6.776 Y-5.845 E23.54176 ; support material
G1 X-6.776 Y-10.933 E23.81817 ; support material
G1 X-6.292 Y-10.933 E23.84447 ; support material
G1 X-6.292 Y-5.845 E24.12089 ; support material
G1 X-5.808 Y-5.845 E24.14718 ; support material
G1 X-5.808 Y-10.933 E24.4236 ; support material
G1 X-5.324 Y-10.933 E24.4499 ; support material
G1 X-5.324 Y-5.845 E24.72631 ; support material
G1 X-4.84 Y-5.845 E24.75261 ; support material
G1 X-4.84 Y-10.933 E25.02903 ; support material
G1 X-4.356 Y-10.933 E25.05533 ; support material
G1 X-4.356 Y-5.845 E25.33174 ; support material
G1 X-3.872 Y-5.845 E25.35804 ; support material
G1 X-3.872 Y-10.933 E25.63446 ; support material
G1 X-3.388 Y-10.933 E25.66076 ; support material
G1 X-3.388 Y-5.845 E25.93717 ; support material
G1 X-2.904 Y-5.845 E25.96347 ; support material
G1 X-2.904 Y-10.933 E26.23989 ; support material
G1 X-2.42 Y-10.933 E26.26619 ; support material
G1 X-2.42 Y-5.845 E26.5426 ; support material
G1 X-1.936 Y-5.845 E26.5689 ; support material
G1 X-1.936 Y-10.933 E26.84532 ; support material
G1 X-1.452 Y-10.933 E26.87161 ; support material
G1 X-1.452 Y-5.845 E27.14803 ; support material
G1 X-.968 Y-5.845 E27.17433 ; support material
G1 X-.968 Y-10.933 E27.45074 ; support material
G1 X-.484 Y-10.933 E27.47704 ; support material
G1 X-.484 Y-5.845 E27.75346 ; support material
G1 X0 Y-5.845 E27.77976 ; support material
G1 X0 Y-10.933 E28.05617 ; support material
G1 X.484 Y-10.933 E28.08247 ; support material
G1 X.484 Y-5.845 E28.35889 ; support material
G1 X.968 Y-5.845 E28.38519 ; support material
G1 X.968 Y-10.933 E28.6616 ; support material
G1 X1.452 Y-10.933 E28.6879 ; support material
G1 X1.452 Y-5.845 E28.96432 ; support material
G1 X1.936 Y-5.845 E28.99061 ; support material
G1 X1.936 Y-10.933 E29.26703 ; support material
G1 X2.42 Y-10.933 E29.29333 ; support material
G1 X2.42 Y-5.845 E29.56975 ; support material
G1 X2.904 Y-5.845 E29.59604 ; support material
G1 X2.904 Y-10.933 E29.87246 ; support material
G1 X3.388 Y-10.933 E29.89876 ; support material
G1 X3.388 Y-5.845 E30.17517 ; support material
G1 X3.872 Y-5.845 E30.20147 ; support material
G1 X3.872 Y-10.933 E30.47789 ; support material
G1 X4.356 Y-10.933 E30.50419 ; support material
G1 X4.356 Y-5.845 E30.7806 ; support material
G1 X4.76 Y-5.845 E30.80253 ; support material
G1 X4.84 Y-5.765 E30.80871 ; support material
G1 X4.84 Y-11.129 E31.10015 ; support material
;WIPE_START
G1 F6240
G1 X4.84 Y-5.765 E29.63021 ; wipe and retract
G1 X4.76 Y-5.845 E29.59901 ; wipe and retract
G1 X4.356 Y-5.845 E29.48843 ; wipe and retract
G1 X4.356 Y-6.897 E29.20015 ; wipe and retract
;WIPE_END
G1 E29.10015 F1800 ; retract
G92 E0 ; reset extrusion distance
G1 Z.5 F420 ; lift Z
G1 X2.868 Y-4.684 F7800 ; move to first support material point
G1 X-4.96 Y5.885 ; move to first support material point
G1 X-8.228 Y11.129 ; move to first support material point
G1 Z.3 F420 ; restore layer Z
G1 E2 F1800 ;  ; unretract
G1 F600
G1 X-8.228 Y-10.933 E3.19865 ; support material
G1 X-8.712 Y-10.933 E3.22495 ; support material
G1 X-8.712 Y10.933 E4.41295 ; support material
G1 X-9.196 Y10.933 E4.43925 ; support material
G1 X-9.196 Y-10.933 E5.62725 ; support material
G1 X-9.68 Y-10.933 E5.65355 ; support material
G1 X-9.68 Y10.933 E6.84155 ; support material
G1 X-10.164 Y10.933 E6.86785 ; support material
G1 X-10.164 Y-10.933 E8.05585 ; support material
G1 X-10.648 Y-10.933 E8.08215 ; support material
G1 X-10.648 Y11.129 E9.2808 ; support material
;WIPE_START
G1 F6240
G1 X-10.648 Y4.195 E7.3808 ; wipe and retract
;WIPE_END
G1 E7.2808 F1800 ; retract
G92 E0 ; reset extrusion distance
G1 Z.5 F420 ; lift Z
G1 X-6.746 Y4.729 F7800 ; move to first perimeter point
G1 X-.4 Y5.6 ; move to first perimeter point
G1 Z.3 F420 ; restore layer Z
G1 E2 F1800 ;  ; unretract
;TYPE:Perimeter
G1 F600
G1 X-6.045 Y5.6 E2.30672 ; perimeter
G1 X-6.045 Y-3.867 E2.8211 ; perimeter
G1 X3.422 Y-3.867 E3.33547 ; perimeter
G1 X3.422 Y5.6 E3.84984 ; perimeter
G1 X-.34 Y5.6 E4.05423 ; perimeter
G1 X0 Y6.035 F7800 ; move to first perimeter point
;TYPE:External perimeter
G1 F600
G1 X-6.481 Y6.035 E4.40635 ; perimeter
G1 X-6.481 Y-4.303 E4.96806 ; perimeter
G1 X3.857 Y-4.303 E5.52977 ; perimeter
G1 X3.857 Y6.035 E6.09148 ; perimeter
G1 X.06 Y6.035 E6.2978 ; perimeter
G1 X-.32 Y5.795 F7800 ; move inwards before travel
G1 E4.2978 F1800 ; retract
G92 E0 ; reset extrusion distance
G1 Z.5 F420 ; lift Z
G1 X3.291 Y-2.855 F7800 ; move to first infill point
G1 Z.3 F420 ; restore layer Z
G1 E2 F1800 ;  ; unretract
;TYPE:Solid infill
;WIDTH:0.500395
G1 F600
G1 X2.606 Y-3.541 E2.05271 ; infill
G1 X1.989 Y-3.541 E2.08625 ; infill
G1 X3.095 Y-2.435 E2.17131 ; infill
G1 X3.095 Y-1.818 E2.20484 ; infill
G1 X1.372 Y-3.541 E2.33732 ; infill
G1 X.756 Y-3.541 E2.37085 ; infill
G1 X3.095 Y-1.202 E2.55076 ; infill
G1 X3.095 Y-.585 E2.58429 ; infill
G1 X.139 Y-3.541 E2.81162 ; infill
G1 X-.477 Y-3.541 E2.84515 ; infill
G1 X3.095 Y.032 E3.1199 ; infill
G1 X3.095 Y.648 E3.15343 ; infill
G1 X-1.094 Y-3.541 E3.47561 ; infill
G1 X-1.711 Y-3.541 E3.50914 ; infill
G1 X3.095 Y1.265 E3.87874 ; infill
G1 X3.095 Y1.882 E3.91227 ; infill
G1 X-2.327 Y-3.541 E4.32929 ; infill
G1 X-2.944 Y-3.541 E4.36282 ; infill
G1 X3.095 Y2.498 E4.82726 ; infill
G1 X3.095 Y3.115 E4.86079 ; infill
G1 X-3.561 Y-3.541 E5.37266 ; infill
G1 X-4.177 Y-3.541 E5.40619 ; infill
G1 X3.095 Y3.731 E5.96548 ; infill
G1 X3.095 Y4.348 E5.99901 ; infill
G1 X-4.794 Y-3.541 E6.60572 ; infill
G1 X-5.41 Y-3.541 E6.63925 ; infill
G1 X3.095 Y4.965 E7.29338 ; infill
G1 X3.095 Y5.273 E7.31015 ; infill
G1 X2.787 Y5.273 E7.32692 ; infill
G1 X-5.719 Y-3.232 E7.98104 ; infill
G1 X-5.719 Y-2.616 E8.01457 ; infill
G1 X2.17 Y5.273 E8.62127 ; infill
G1 X1.553 Y5.273 E8.6548 ; infill
G1 X-5.719 Y-1.999 E9.21408 ; infill
G1 X-5.719 Y-1.383 E9.24761 ; infill
G1 X.937 Y5.273 E9.75947 ; infill
G1 X.32 Y5.273 E9.793 ; infill
G1 X-5.719 Y-.766 E10.25743 ; infill
G1 X-5.719 Y-.149 E10.29096 ; infill
G1 X-.296 Y5.273 E10.70797 ; infill
G1 X-.913 Y5.273 E10.7415 ; infill
G1 X-5.719 Y.467 E11.11109 ; infill
G1 X-5.719 Y1.084 E11.14462 ; infill
G1 X-1.53 Y5.273 E11.46679 ; infill
G1 X-2.146 Y5.273 E11.50032 ; infill
G1 X-5.719 Y1.701 E11.77506 ; infill
G1 X-5.719 Y2.317 E11.80859 ; infill
G1 X-2.763 Y5.273 E12.03591 ; infill
G1 X-3.38 Y5.273 E12.06944 ; infill
